X:1
T:Regina coeli
T:Regina coeli
T:Cipriano de Rore
T:Source : Fantasie, recercari, contrapunti---Libro primo---Venetia---A.Gardano---1559. Editor : André Vierendeels (12/02/14).
T:b
C:Cipriano de Rore
%%score [ 1 2 3 ]
L:1/8
Q:1/4=96
M:2/2
K:F
V:1 treble-8 nm="Tenor 1" snm="T 1"
V:2 treble-8 nm="Tenor 2" snm="T 2"
V:3 bass nm="Bassus" snm="B"
V:1
 z4 z2 c2- | c2 d4 e2- | e2 f3 e c2 | d2 d2 d3 c | de f2 B2 e2- | e2 d4 c2- | c2 A2 d2 e2 | %7
w: Re-|* gi- na|_ coe- * *|li, lae- ta- *|* * * re, lae-|* ra- re,|_ al- le- lu-|
 f2 c2 =B2 c2 | F2 c2 d2 c2- | c2 f4 d2- | d2 _e2 c2 d2- | dc B2 A2 B2- | BA GF GF f2- | %13
w: ia, al- le lu-|ia, lae- ta- re,|_ al- le-|* lu- ia, al-|* * * le- lu-||
 fe e2 fe dc |"^b" B2 e2 c3 B | c2 d3 c B2- | BA A4 G2 | A8 | z8 | z2 f3 e d2 |"^b" B2 e4 d2- | %21
w: * * * ia, _ _ _|_ al- le- *|* lu- * *||ia,||qui- * *|a quem me-|
"^b" d2 c2 f2 ed | cB c2 A2 F2- | F2 G3 F f2- | fe dc Bc d2 | G2 B4 A2- | A2 d4 B2- | Bc d3 c BA | %28
w: * ru- i- * *|* * * sti por-|* ta- * *||re, por- *|* ta- *||
 G2 F4 G2- | GF F3 E E2 | F2 G4 A2- | A2 B3 G c2 | A2 B4 AG | B2 c4 f2- | fe/d/ e2 f2 c2 | %35
w: ||re, por- *|* ta- * *|||* * * * re, al-|
 f2 d3 c B2- | B2 A2 z2 f2 | dc BA G2 _e2 | d2 G2 B2 c2 | A2 d4 e2- | e2 f3 e d2- | dc c3 B B2- | %42
w: le- lu- * *|* ia, al-|le- * * * * lu-|ia, al- le- lu-|ia, al- le-|||
 BA A3 G c2- | cA d2 c2 d2- | dc/B/ A2 z2 d2 | e2 f4 B2- | BA/G/ A2 F2 G2- | G2 A2 B3 A | %48
w: |* * lu- ia, _|_ _ _ _ re-|sur- re- *|* * * * xit sic-|* ut di- *|
 G2 F2 z2 G2 | d2 c4 d2- | dc/B/ A2 G2 d2 | f2 _e2 d2 d2- | d2 c3 B cd | e2 f2 F2 A2 | %54
w: * xit, sic-|ut di- *|* * * * xit, al-|le- lu- ia, al|_ le- * * *|* lu- ia, al-|
 AG AB c2 d2 | GA Bc d2 d2- | d2 G2 G2 A2- | AG F2 D2 F2- | FE E2 F2 c2 | F2 G2 AB cA | %60
w: le- * * * * lu-|ia, _ _ _ _ o-|* ra pro no-|* * * bis de-|* * * um, o-|ra pro no- * * *|
 B2 c2 dc BA | GF G2 E2 c2- | c2 c2 c2 d2- | d2 cB A2 d2- | dc BA/G/ FG AF | G2 A2 BA GF | %66
w: * bis de- * * *|* * * um, o-|* ra pro no-|||* bis de- * * *|
 E2 F2 G2 G2 | BA Bc de fd | e2 f3 c f2- | fe/d/ e2 f2 c2- | c2 f3 e/d/ e2 | A2 B3 A/G/ A2 | %72
w: * * um, al|le- * * * * * * *|* lu- * *|* * * * ia, al-||le- lu- * * *|
 B2 A2 FG AF | G2 A2 BA GF | E2 F2 G3 A | BA Bc de fd | e2 f3 c f2- | fe/d/ e2 f2 c2- | c2 d4 e2 | %79
w: ia, al- le- * * *|* lu- ia, _ _ _|_ al- le- *||* lu- * *|* * * * ia, al-|* le- lu-|
 A2 f3 e dc | BG c2 de f2- | fe c2 d2 c2- | c2 f4 d2- | d2 B3 A/G/ B2- | BA AB c2 d2 | c8 |] %86
w: ia, al- * * *|* * * le- * *|* * * lu- ia,|_ al- *|* le- * * *|* * * * * lu-|ia.|
V:2
 F4 G4 | F4 G4 | A4 A4 | z4 B4 | A4 G4 | B4 A4 | F4 G4 | F4 z4 | A4 G4 | A4 F4 | G4 F4 | F4 z4 | %12
w: Re- gi-|na coe-|* li,|lae-|ta- *|||re,|lae- ta-|||re,|
 B8 | G4 F4 | G4 A4 | F4 z4 | F4 c4 | c4 d4 | d4 c4 | B4 A4 | G4 F4 | G4 A4 | A4 z4 | B8- | B4 G4 | %25
w: al-|le- *|lu- *|ia,|qui- a|quem _|me- *||ru- *|i- *|sti|por-||
 B4 c4 | F4 G4 | F4 z4 | B8- | B4 G4 | B4 c4 | F4 G4 | F4 z4 | G4 A4 | G4 A4 | F4 G4 | F4 F4 | %37
w: |ta- *|re,|por-|||ta- *|re|por- ta-|||* re,|
 z4 B4- | B4 G4 | F4 G4 | A4 F4 | A4 G4 | F4 E4 | F4 F4 | z4 B4 | c4 d4 | c4 B4 | c4 z4 | c8 | %49
w: al|_ le-||||* lu-|* ia,|re-|sur- re-||xit|sic-|
 F4 G4 | F4 z4 | B8 | G4 A4 | c8 | F4 G4 | G4 F4 | z4 c4- | c4 F4 | G4 A4 | B4 A4 | G4 F4 | E4 G4 | %62
w: ut di-|xit,|al-|le- *||lu- *|ia, _|o-|* ra|pro- *|no- *|* bis|_ de-|
 F4 F4 | z4 F4 | F4 A4 | c4 d4 | c4 B4 | G4 A4 | z4 c4 | B4 A4 | F4 G4 | F4 z4 | F4 A4 | c4 d4 | %74
w: * um,|al-|le- *|||lu- ia,|al|le- lu-||ia,|al- le-||
 c4 B4 | G4 A4 | z4 c4 | B4 A4 | F4 G4 | F4 z4 | G4 B4 | A4 G4 | A4 F4 | G4 G4 | F8- | F8 |] %86
w: |lu- ia,|al-|le- lu-||ia,|al le-|lu- ia,|al- le-|* lu-|ia.|_|
V:3
 z2 F,3 E,/D,/ E,2 | F,2 B,,4 C,2- | C,A,, D,3 E, F,2 | B,,2 B,A, G,F, G,2 | F,2 D,2 _E,2 C,2 | %5
w: Re- * * *|gi- na coe-||li, lae- * * * *|ta- re, al- le-|
 G,4 F,3 G, | A,2 D,2 =B,,2 C,2 | D,2 A,2 G,2 A,2- | A,G, F,3 E,/D,/ E,2 | F,2 D,4 B,,2- | %10
w: lu- ia, _|_ al- le- lu-|ia, al- le- lu-||ia, al- le|
 B,,G,, C,2 A,,2 B,,2- | B,,C, D,E, F,2 G,2- | G,2 _E,3 D, B,,2 | C,4 z2 D,2 | _E,2 C,2 F,2 F,,2 | %15
w: _ _ lu- ia, _|_ _ _ _ _ al-|* le- * lu-|ia, al-|le- lu- ia, al-|
 A,,2 B,,2 G,,A,, B,,C, | D,E, F,3 E, E,2 | F,2 F,3 E, D,2 | B,,2 B,4 A,2 | G,2 D,3 C, D,2 | %20
w: le- lu- ia, _ _ _|_ _ _ _ _|* qui- * *|a quem- me-|ru- i- * *|
 _E,2 C,2 D,2 B,,2 | _E,4 D,4 | z2 F,4 D,2- | D,2 _E,3 D, B,,C, | D,2 G,,2 z2 B,2- | %25
w: * * sti por-|ta- re,|por- *|* ta- * * *|* re, por-|
 B,A, G,F, E,2 F,E, | D,C, B,,3 G,, _E,2 | D,2 B,,4 G,,2- | G,,A,, B,,C, D,2 _E,2- | %29
w: * * * * * ta- *||re, por- *|* * * * * ta-|
 E,D, B,,2 C,4 | D,2 _E,3 C, F,2 | D,4 E,4 | D,2 B,,2 _E,4- | E,2 D,C, F,_E, D,C, | %34
w: |re, por- * *|ta- *|re, por- ta-||
 B,,G,, C,2 F,,2 F,2 |"^b" D,C, B,,A,, G,,2 E,2 | D,3 C, B,,A,, B,,2- | B,,2 G,,2 G,,3 A,, | %38
w: * * * re, al-|le- * * * * lu-|ia, _ _ _ _|_ al- le- *|
 B,,G,, _E,4 E,2 | D,C, B,,A,, G,,2 C,2- | C,2 D,4 B,,2 | F,4 z2 G,,A,, | B,,C, D,2 C,B,, A,,G,, | %43
w: * * * lu-|ia, _ _ _ _ al-|* le- lu-|ia, al- *|* * * le- * * *|
 A,,2 B,,2 F,,2 B,,2- | B,,C, D,2 G,,2 B,,2- | B,,A,,/G,,/ A,,2 B,,C, D,E, | F,2 F,2 D,2 _E,2- | %47
w: * lu- ia, re-|* * * sur- re-|* * * * xit _ _ _|_ sic- ut di-|
 E,D, C,2 B,,2 D,2 | E,2 F,3 E,/D,/ C,2 | B,,2 F,,2 C,2 G,,A,, | B,,C, D,2 G,,2 B,,2- | %51
w: * * * xit, sic-|ut di- * * *|xit, al- le lu- *|* * * ia, al-|
 B,,2 G,,3 F,, G,,A,, | =B,,2 C,2 F,,4 | z2 F,2 A,G, F,E, | D,2 D,2 C,2 G,,2 | %55
w: * le- * * *|* lu- ia,|al- le- * * *|* lu- ia, al-|
 _E,2 E,2 D,C, B,,A,, | G,,2 C,4 F,,2- | F,,2 A,,2 B,,2 D,2 | C,4 F,,2 F,2 | D,2 E,2 F,2 F,2 | %60
w: le- lu- ia, _ _ _|_ o- ra|_ pro no- bis|de- um, o-|ra pro no- bis|
 _E,4 B,,4 | z4 C,4 | F,,2 A,,2 A,,2 B,,2 | G,,4 F,,2 B,,2- | B,,2 D,3 E, F,D, | %65
w: de- um,|o-|ra pro no- bis|de- em, al|_ le- * * *|
 E,2 F,2 B,,2 B,2- | B,A,/G,/ A,2 B,2 _E,2 | _E,4 D,4 | C,2 F,2 A,4 | G,4 D,2 F,2- | %70
w: * lu- * *|* * * * ia, al-|le lu-|ia, al- le-|lu- ia, al-|
 F,E, D,2 =B,,2 C,2 | D,3 E, F,2 F,,2 | B,,C, D,C, D,E, F,D, | E,2 F,2 B,,2 B,2- | %74
w: * * * le- lu-|ia, _ _ al-|le- * * * * * * *|* lu- * *|
 B,A,/G,/ A,2 B,2 _E,2 | _E,4 D,4 | C,2 F,2 A,4 | G,4 D,2 F,2- | F,E, D,C, B,,G,, C,2 | %79
w: * * * * ia, al-|le- lu-|ia, al- le-|lu- ia, al-||
 D,C, D,E, F,2 B,,2 |"^b" E,3 D,/C,/ B,,2 D,2- | D,2 F,4 E,2 | F,2 D,4 B,,2- | B,,2 A,,G,, _E,4 | %84
w: le- * * * * lu-|ia, _ _ _ al-|* le- lu-|ia, al- le-||
 D,3 C,/B,,/ A,,2 B,,2 | F,,8 |] %86
w: * * * * lu-|ia.|

